X: 15553
T: Gloomy Winter
R: strathspey
M: 4/4
K: Aminor
|:E<A A>B AG E2|c<c c<e dc B>G|c<c e>B AG EC|DE/F/ E>^G A>A, A,B,:|
C2 C<E D>C B,>D|C>B, A,>C B,>E E2|c2 c<e d>c Bc/d/|c>A BG A2 A>B|
c2 gc Bc d>G|c>B (3ABc B<e e>d|E>G A/G/E/D/ EA Bc/d/|c>A BG A2 Az|

